X:1
T:Henri F. Hemy St. Catherine 8.8.8.8.8.8
T:O Bread of Heaven 
T:Beneath this Veil 
T:O Pane del Cielo St. Alphonsus de' Liguori 
T:This score is in the Public Domain
T:This score is in the Public Domain
Z:This score is in the Public Domain
%%score { ( 1 3 ) | ( 2 4 ) }
L:1/8
M:3/4
K:F
V:1 treble nm="Piano"
V:3 treble 
V:2 bass 
V:4 bass 
V:1
"F" [CA]2"Fsus4" [CG]2"F" [CF]2 | (F2"C7/G" E2)"F" F2 |"C7/Bb" (G2 D2)"C7" E2 |"F" [CF]6 | %4
w: 1.~O Bread of|Hea- ven, be-|neath * this|veil|
w: 2.~O Food of|life, * Thou|Who * dost|give|
w: 3.~O Bond of|Love, * that|dost * u-|nite|
w: 4.~My dear- est|God! * who|dost * so|bind|
w: 5.~O~~ Might- y|Fire, * Thou|that * dost|burn|
w: 6.~O sweet- est|Dart * of|love * di-|vine!|
w: 7.~Be- lov- ed|Lord, * in|Hea- ven a-|bove,|
"Bb" [DF]2"Bbsus4" [CE]2"Bb/D" [B,D]2 |"F" [A,C]4 [CF]2 |"G7" (F2"G6" E2)"G" F2 |"C" [CG]6 | %8
w: 1.~Thou dost my|ve- ry|God * con-|ceal;|
w: 2.~The pledge of|im- mor-|tal- * i-|ty;|
w: 3.~The ser- vant|to his|Lo- * ving|Lord;|
w: 4.~My heart with|count- less|chains * to|Thee!|
w: 5.~To kin- dle|ev- 'ry|mind * and|heart!|
w: 6.~If I have|sinned then|vean- * geance|take;|
w: 7.~There, Je- sus,|Thou a-|wait- * est|me;|
"F" [CA]2"Fsus4" [CG]2"F" [CF]2 |"F/C" [CF]2"C7" [B,E]2"Dm" [A,F]2 |"G/B" (G2 D2)"C7" E2 | %11
w: 1.~My Je- sus|dea- * rest|trea- * sure,|
w: 2.~I live; no,|'tis * not|I * that|
w: 3.~Could I dare|live * and|not * re-|
w: 4.~O sweet- est|love, * my|soul * shall|
w: 5.~For Thee my|fro- * zen|soul * doth|
w: 6.~Come pierce this|guil- * ty|heart * of|
w: 7.~To gaze on|Thee * with|change- * less|
"F" [CF]6 |"Bb" [DF]2"Bbsus4" [CE]2"Bb/D" [B,D]2 |"F" [A,C]4 [CA]2 |"G7" (G2 A2)"C7" G2 | %15
w: hail!|1.~I love Thee|and a-|do- * ring|
w: live,|2.~God gives me|life, God|lives * in|
w: quite|3.~Such love, then|death were|meet * re-|
w: find|4.~In Thy dear|bonds true|li- * ber-|
w: yearn;|5.~Come, Lord of|love, Thy|warmth * im-|
w: mine,|6.~And let it|die for|His * dear|
w: love;|7.~Yes, thus, I|hope, thus|shall * it|
"F" [A,F]6 |"Bb" [FB]2 [FB]2 [FB]2 |"F" [FA]4 [FA]2 |"C" [EG]4 [EG]2 |"F" [FA]6 | %20
w: kneel:|1.~Each lo- ving|soul by|Thee is|fed|
w: me:|2.~He feeds my|soul, He|guides my|ways|
w: ward:|3.~I can- not|live, un-|less to|prove|
w: ty.|4.~Thy- self Thou|hast be-|stowed on|me;|
w: part;|5.~If thus to|speak too|bold ap-|pear,|
w: sake|6.~Who once ex-|pired on|Cal- va-|ry,|
w: be:|7.~For how can|He de-|ny me|heav'n,|
"F" [A,A]2"C7/G" [B,G]2"F/A" [CF]2 |"B" [B,D]4"Dm" [A,F]2 |"Csus4""C" [CG]4"C7" [B,G]2 | %23
w: 1.~With Thy Own|Self in|form of|
w: 2.~And ev- ry|grief with|joy re-|
w: 3.~Some love for|such un-|mea- sured|
w: 4.~Thine, Thine for|e- ver|I well|
w: 5.~Tis love like|Thine has|ban- ished|
w: 6.~His heart pierced|through for|love of|
w: 7.~Who here on|earth Him-|self hath|
"F" [A,F]6 |] %24
w: Bread.|
w: pays.|
w: Love.|
w: be.|
w: fear.|
w: me.|
w: giv'n?|
V:2
 [F,C]2 [F,B,]2 [F,A,]2 | [F,A,]2 [G,B,]2 [F,A,]2 | [B,,G,]4 [C,B,]2 | [F,,A,]6 | %4
 [B,,F,]2 [B,,F,]2 [D,F,]2 | F,4 [F,,A,]2 | [G,,D,]4 [G,,G,]2 | [C,E,]6 | [F,C]2 [F,B,]2 [F,A,]2 | %9
 (A,2 G,2) F,2 | [B,,B,]4 [C,G,]2 | [F,,A,]6 | [B,,F,]2 [B,,F,]2 [D,F,]2 | F,4 [F,,F,]2 | %14
 [G,,F,]4 [C,E,]2 | F,6 | [B,,D]2 [B,,D]2 [B,,D]2 | [F,C]4 [F,C]2 | [C,C]4 [C,C]2 | [F,C]6 | %20
 [F,,F,]2 [G,,E,]2 [A,,F,]2 | [B,,F,]4 [D,F,]2 | (F,2 E,2) E,2 | [F,,F,]6 |] %24
V:3
 x6 | C4 C2 | D4 C2 | x6 | x6 | x6 | =B,4 D2 | x6 | x6 | x6 | D4 B,2 | x6 | x6 | x6 | =B,4 _B,2 | %15
 x6 | x6 | x6 | x6 | x6 | x6 | x6 | x6 | x6 |] %24
V:4
 x6 | x6 | x6 | x6 | x6 | x6 | x6 | x6 | x6 | C,4 D,2 | x6 | x6 | x6 | x6 | x6 | x6 | x6 | x6 | %18
 x6 | x6 | x6 | x6 | C,4 C,2 | x6 |] %24

